style-guide/assets/xd-icons-controls-tiny.svg

<?xml version="1.0" encoding="UTF-8"?>
<svg width="12px" height="12px" viewBox="0 0 12 12" version="1.1" xmlns="http://www.w3.org/2000/svg" xmlns:xlink="http://www.w3.org/1999/xlink">
    <!-- Generator: Sketch 51.3 (57544) - http://www.bohemiancoding.com/sketch -->
    <title>controls</title>
    <desc>Created with Sketch.</desc>
    <defs></defs>
    <g id="controls" stroke="none" stroke-width="1" fill="none" fill-rule="evenodd">
        <path d="M4,8 C4.552,8 5,8.448 5,9 L5,11 C5,11.552 4.552,12 4,12 C3.448,12 3,11.552 3,11 L1,11 C0.448,11 0,10.552 0,10 C0,9.448 0.448,9 1,9 L3,9 C3,8.448 3.448,8 4,8 Z M1,3 C0.448,3 0,2.552 0,2 C0,1.448 0.448,1 1,1 L3,1 C3,0.448 3.448,0 4,0 C4.552,0 5,0.448 5,1 L5,3 C5,3.552 4.552,4 4,4 C3.448,4 3,3.552 3,3 L1,3 Z M11,9 C11.552,9 12,9.448 12,10 C12,10.552 11.552,11 11,11 L8,11 C7.448,11 7,10.552 7,10 C7,9.448 7.448,9 8,9 L11,9 Z M8,3 C7.448,3 7,2.552 7,2 C7,1.448 7.448,1 8,1 L11,1 C11.552,1 12,1.448 12,2 C12,2.552 11.552,3 11,3 L8,3 Z M11,4 C11.552,4 12,4.448 12,5 L12,7 C12,7.552 11.552,8 11,8 C10.448,8 10,7.552 10,7 L1,7 C0.448,7 0,6.552 0,6 C0,5.448 0.448,5 1,5 L10,5 C10,4.448 10.448,4 11,4 Z" id="Fill-7" fill="#000000"></path>
    </g>
</svg>

<svg viewBox="0 0 12 12" xmlns="http://www.w3.org/2000/svg">
  <path d="M4 8a1 1 0 0 1 1 1v2a1 1 0 0 1-2 0H1a1 1 0 0 1 0-2h2a1 1 0 0 1 1-1zM1 3a1 1 0 0 1 0-2h2a1 1 0 0 1 2 0v2a1 1 0 0 1-2 0H1zm10 6a1 1 0 0 1 0 2H8a1 1 0 0 1 0-2h3zM8 3a1 1 0 0 1 0-2h3a1 1 0 0 1 0 2H8zm3 1a1 1 0 0 1 1 1v2a1 1 0 0 1-2 0H1a1 1 0 0 1 0-2h9a1 1 0 0 1 1-1z" fill="#000" fill-rule="evenodd"/>
</svg>
